X:2598
T:Almande
C:Claude Gervaise
L:1/8
M:2/2
O:France
Z:Andy Hornby
K:G
G4GABc|d6d2|A2B2c2A2|B4B2z2:|
|:G2GA B2AG|A4A4|G2GA BA G2|A4A4|
G2GA B2AG|F3G A2B2|G2B2AG F2|G4G4:|

